portfolio/src/asset/picture_source/project_icon/Software_Tool/IDE/eclipse.svg

<svg xmlns="http://www.w3.org/2000/svg"  viewBox="0 0 50 50" width="48px" height="48px" fill="#AF69EE"><path d="M 19.509766 4.3144531 C 9.5887656 5.9844531 2 14.612 2 25 C 2 35.388 9.5887656 44.015547 19.509766 45.685547 C 11.055766 42.615547 5 34.502 5 25 C 5 15.498 11.055766 7.3844531 19.509766 4.3144531 z M 27 5 C 17.684 5 9.87925 11.379 7.65625 20 L 46.345703 20 C 44.121703 11.379 36.316 5 27 5 z M 7.2480469 22 C 7.1490469 22.657 7.0847812 23.324 7.0507812 24 L 46.949219 24 C 46.915219 23.324 46.851953 22.657 46.751953 22 L 7.2480469 22 z M 7.0507812 26 C 7.0847812 26.676 7.1490469 27.343 7.2480469 28 L 46.751953 28 C 46.850953 27.343 46.915219 26.676 46.949219 26 L 7.0507812 26 z M 7.65625 30 C 9.87925 38.621 17.684 45 27 45 C 36.316 45 44.12075 38.621 46.34375 30 L 7.65625 30 z"/></svg>

<svg xmlns="http://www.w3.org/2000/svg" viewBox="0 0 50 50" width="48" height="48" fill="#AF69EE"><path d="M19.51 4.314C9.589 5.984 2 14.612 2 25s7.589 19.016 17.51 20.686C11.056 42.616 5 34.502 5 25S11.056 7.384 19.51 4.314zM27 5C17.684 5 9.88 11.379 7.656 20h38.69C44.122 11.379 36.316 5 27 5zM7.248 22a20.242 20.242 0 0 0-.197 2h39.898a19.944 19.944 0 0 0-.197-2H7.248zm-.197 4c.034.676.098 1.343.197 2h39.504c.099-.657.163-1.324.197-2H7.051zm.605 4C9.88 38.621 17.684 45 27 45s17.12-6.379 19.344-15H7.656z"/></svg>
